**kern	**kern	**dynam
*part1	*part1	*part1
*staff2	*staff1	*
*I"Piano	*	*
*clefF4	*clefG2	*
*k[b-]	*k[b-]	*
=1	=1	=1
(4FF 4C	4.f 4.a 4.cc	<
8AA	.	.
4FF	4.c) 4.a	.
8AA)	.	.
=	=	=
(4CC	(4.g 4.cc 4.ee-X	.
8C	.	.
4E-X	4g 4b- 4dd	.
8G)	8g 8a 8cc	.
=	=	=
(4GG 4D	4.g 4.b- 4.dd	.
8BB-	.	.
4GG	4.d) 4.b-	.
8BB-)	.	.
=	=	=
*	*^	*
(4CC	([4.een [4.gg	2.b-	[ p >
8GG	.	.	.
4C	4ee] 4gg]	.	]
8GG)	8dd) 8ff	.	.
=	=	=	=
(4CC	([4.cc [4.ee	2.g	>
8GG	.	.	.
4C	4cc] 4ee]	.	.
8GG)	8b-) 8dd	.	.
=	=	=	=
(4CC	(4.a 4.cc	2.e	.
8C	.	.	.
4CC	4.g) 4.b-	.	.
8C)	.	.	.
=	=	=	=
(4CC	(4.f 4.a	2.c	.
8C	.	.	.
4CC	4.e) 4.g	.	.
8C)	.	.	.
*	*v	*v	*
=	=	=
*-	*-	*-
!!!system-decoration: {(s1,s2)}
